svg/design/brush_2_line.svg

<?xml version="1.0" encoding="UTF-8"?>
<svg width="24px" height="24px" viewBox="0 0 24 24" version="1.1" xmlns="http://www.w3.org/2000/svg" xmlns:xlink="http://www.w3.org/1999/xlink">
    <title>brush_2_line</title>
    <g id="页面-1" stroke="none" stroke-width="1" fill="none" fill-rule="evenodd">
        <g id="Design" transform="translate(-576.000000, -96.000000)">
            <g id="brush_2_line" transform="translate(576.000000, 96.000000)">
                 <path d="M24,0 L24,24 L0,24 L0,0 L24,0 Z M12.5934901,23.257841 L12.5819402,23.2595131 L12.5108777,23.2950439 L12.4918791,23.2987469 L12.4918791,23.2987469 L12.4767152,23.2950439 L12.4056548,23.2595131 C12.3958229,23.2563662 12.3870493,23.2590235 12.3821421,23.2649074 L12.3780323,23.275831 L12.360941,23.7031097 L12.3658947,23.7234994 L12.3769048,23.7357139 L12.4804777,23.8096931 L12.4953491,23.8136134 L12.4953491,23.8136134 L12.5071152,23.8096931 L12.6106902,23.7357139 L12.6232938,23.7196733 L12.6232938,23.7196733 L12.6266527,23.7031097 L12.609561,23.275831 C12.6075724,23.2657013 12.6010112,23.2592993 12.5934901,23.257841 L12.5934901,23.257841 Z M12.8583906,23.1452862 L12.8445485,23.1473072 L12.6598443,23.2396597 L12.6498822,23.2499052 L12.6498822,23.2499052 L12.6471943,23.2611114 L12.6650943,23.6906389 L12.6699349,23.7034178 L12.6699349,23.7034178 L12.678386,23.7104931 L12.8793402,23.8032389 C12.8914285,23.8068999 12.9022333,23.8029875 12.9078286,23.7952264 L12.9118235,23.7811639 L12.8776777,23.1665331 C12.8752882,23.1545897 12.8674102,23.1470016 12.8583906,23.1452862 L12.8583906,23.1452862 Z M12.1430473,23.1473072 C12.1332178,23.1423925 12.1221763,23.1452606 12.1156365,23.1525954 L12.1099173,23.1665331 L12.0757714,23.7811639 C12.0751323,23.7926639 12.0828099,23.8018602 12.0926481,23.8045676 L12.108256,23.8032389 L12.3092106,23.7104931 L12.3186497,23.7024347 L12.3186497,23.7024347 L12.3225043,23.6906389 L12.340401,23.2611114 L12.337245,23.2485176 L12.337245,23.2485176 L12.3277531,23.2396597 L12.1430473,23.1473072 Z" id="MingCute" fill-rule="nonzero"></path>
                <path d="M2.80758,2.80758 C3.69279,1.92237 4.81823,1.47789 5.99229,1.60483 C7.15299,1.73033 8.21701,2.3975 9.0477,3.45114 C9.9364,4.57839 10.7481,6.18292 11.3845,7.6254 C11.6949941,8.32908941 12.5445055,8.49948388 13.0602269,8.10028381 L13.1528,8.01875 L13.7678,7.40372 C14.7016522,6.46982 16.1905032,6.42934374 17.1726162,7.28196742 L17.3033,7.40377 L21.5459,11.6464 C22.4797522,12.5802522 22.5203544,14.0691032 21.6677068,15.0512162 L21.5459,15.1819 L15.1819,21.5459 C14.2480478,22.4797522 12.7591968,22.5203544 11.7770838,21.6677068 L11.6464,21.5459 L7.40377,17.3033 C6.46995609,16.3694478 6.42922739,14.8805968 7.28591593,13.8944581 L7.4083,13.7632 L8.01875,13.1528 C8.5187,12.6528 8.37307,11.7144 7.62539,11.3845 C6.18291,10.7481 4.57838,9.9364 3.45113,9.0477 C2.3975,8.217 1.73033,7.15298 1.60483,5.99229 C1.47789,4.81823 1.92237,3.69279 2.80758,2.80758 Z M19.071,12 L12,19.071 L13.0606,20.1317 C13.2559,20.327 13.5725,20.327 13.7677,20.1317 L20.1317,13.7677 C20.327,13.5725 20.327,13.2559 20.1317,13.0606 L19.071,12 Z M5.77729,3.59324 C5.27869,3.53933 4.73397,3.70961 4.22179,4.22179 C3.70961,4.73398 3.53933,5.27869 3.59324,5.77729 C3.6486,6.28925 3.9579,6.9004 4.6894,7.47712 C5.60939,8.20246 7.02118,8.93197 8.43269,9.5547 C10.3081674,10.3821265 10.9655756,12.8448428 9.56474198,14.426875 L9.4317,14.5682 L8.81794,15.182 C8.64441111,15.3555111 8.62509852,15.6248642 8.76012162,15.819814 L8.81799,15.8891 L10.5858,17.6568 L17.6568,10.5858 L15.8891,8.81799 C15.7154111,8.64438111 15.4460383,8.62512284 15.2512267,8.76009579 L15.182,8.81794 L14.567,9.433 C12.9956,11.0043 10.4072,10.365 9.5547,8.4327 C8.93196,7.02118 8.20246,5.6094 7.47712,4.68939 C6.9004,3.9579 6.28926,3.64859 5.77729,3.59324 Z" id="形状" fill="#09244B"></path>
            </g>
        </g>
    </g>
</svg>

<svg xmlns="http://www.w3.org/2000/svg" width="24" height="24"><g fill="none" fill-rule="evenodd"><path d="M24 0v24H0V0h24ZM12.593 23.258l-.011.002-.071.035-.02.004-.014-.004-.071-.035c-.01-.004-.019-.001-.024.005l-.004.01-.017.428.005.02.01.013.104.074.015.004.012-.004.104-.074.012-.016.004-.017-.017-.427c-.002-.01-.009-.017-.017-.018Zm.265-.113-.013.002-.185.093-.01.01-.003.011.018.43.005.012.008.007.201.093c.012.004.023 0 .029-.008l.004-.014-.034-.614c-.003-.012-.01-.02-.02-.022Zm-.715.002a.023.023 0 0 0-.027.006l-.006.014-.034.614c0 .012.007.02.017.024l.015-.002.201-.093.01-.008.004-.011.017-.43-.003-.012-.01-.01-.184-.092Z"/><path fill="#09244B" d="M2.808 2.808c.885-.886 2.01-1.33 3.184-1.203 1.161.125 2.225.793 3.056 1.846.888 1.127 1.7 2.732 2.336 4.174.311.704 1.16.874 1.676.475l.093-.081.615-.615a2.5 2.5 0 0 1 3.405-.122l.13.122 4.243 4.242a2.5 2.5 0 0 1 .122 3.405l-.122.13-6.364 6.365a2.5 2.5 0 0 1-3.405.122l-.13-.122-4.243-4.243a2.5 2.5 0 0 1-.118-3.409l.122-.13.61-.611c.5-.5.355-1.439-.393-1.769-1.442-.636-3.047-1.448-4.174-2.336-1.053-.831-1.72-1.895-1.846-3.056-.127-1.174.317-2.3 1.203-3.184ZM19.07 12 12 19.071l1.06 1.06a.5.5 0 0 0 .708 0l6.364-6.363a.5.5 0 0 0 0-.707L19.07 12ZM5.777 3.593c-.498-.054-1.043.117-1.555.629s-.683 1.057-.629 1.555c.056.512.365 1.123 1.096 1.7.92.725 2.332 1.455 3.744 2.078 1.875.827 2.533 3.29 1.132 4.872l-.133.141-.614.614a.5.5 0 0 0-.058.638l.058.07 1.768 1.767 7.07-7.071-1.767-1.768a.5.5 0 0 0-.638-.058l-.069.058-.615.615c-1.571 1.571-4.16.932-5.012-1-.623-1.412-1.353-2.824-2.078-3.744-.577-.731-1.188-1.04-1.7-1.096Z"/></g></svg>
